X:1
T:Deggio amarvi
T:Benedetto Ferrari
T:Source : Musiche Varie a voce sola---Libro terzo---Venetia---B.Magni---1641. Editor : André Vierendeels (13/01/17).
T:Notes : Original clefs : C4, F4 Editorial accidentals above the staff Original note values have been halved Figures in BC are notated in original print  
T:Deggio amarvi
T:©
T:©
T:©
T:©
C:Benedetto Ferrari
Z:©
%%score 1 2
L:1/8
Q:1/4=102
M:6/4
K:C
V:1 treble-8 nm="Tenor" snm="T"
V:2 bass nm="MusicXML Part"
V:1
 z2 z2 DD A4 A2 | z2 z2 AA d2 d2 ^FG | A2 A2 z2 z2 z2 dA | B2 z2 z2 z2 z2 cG | A2 d4 z2 e4 | %5
w: Deg- gio'a- mar- vi,|deg- gio'a- var- mi, oc- chi|bel- li, no, o|si, no, o|si, no no|
w: Deg- gio'a- mar- vi,|deg- gio'a- mar- vi oc- chi|ca- ri, si o|ni, si o|no, si si|
 z2 z2 fe d2 c3 _B | A2 A2 A/_B/c B4 A2 | A4 z2 z2 z2 dA | B2 z2 z2 z2 z2 cG | A2 d4 z2 e4 | %10
w: no ch'al lu- me far-|fal- la'in _ _ _ ce- ne-|ri, no, ,o|si no, o|si, no no|
w: se dol- ce pal- lo-|re'in voi _ _ _ _ ve-|dro, si o|no, so o|no, si si|
 z2 z2 fe d2 e2 f2 | B2 B2 B/c/d d4 ^c2 | d6- d2 c/B/A G2 | z12 ::[M:3/4] z6 | %15
w: no ch'al lu- me far-|fal- la'in _ _ _ ce- ne-|ri, _ _ _ _ _|||
w: se dol- ce pal- lo-|re'in voi _ _ _ _ ve-|dro, _ _ _ _ _|||
[M:6/4] z2 d2 A2 B2 B2 z2 | z2 c2 G2 A2 A2 z2 | z2 f2 c2 d2 d2 z2 | z2 g2 d2 e2 e2 e2- | %19
w: sa- rei fol- le|à bra- mar- vi,|sa- rei fol- le|à bra- mer- vi o|
w: ab- ba- gli- ar,|e a- vam- par|ab- ba- gli- ar,|e a- vam- par, as-|
 e2 d3 c B6 | A4 cd _B4 BA | A6 G6 | G6- G4 G2 |"^#" G6 F6 | z A Bc dc BB ^cd ed | %25
w: _ lu- ci bel-|le che non li- ce'à'un mor-|tal go-|der _ le|stel- le|go- * * * * * * * * * *|
w: * sai men suo-|le quan- do si mo- stra|pal- li-|det- * to'il|So- le.|pal- li- * * * * * * * * *|
 ^cc de fe d2 ed ef | g4 f2 e6 | d12 :| %28
w: |der le stel-|le.|
w: |det- to'il So-|le.|
V:2
"^BC" D,6 ^C,6 | z2 z2 D,2 _B,,6 | A,4- A,G, F,6 | G,4- G,F, E,6 | F,6 G,6 | A,6 _B,2 C4 | %6
"^4 3" D2 _B,4 C2 C,4 | F,4 z2 ^F,6 | G,4- G,F, E,6 | F,6 G,6 |"^#" A,6 _B,6 | G,6 A,2 A,,4 | %12
 D,4- D,E, F,2 G,3 A, | _B,2 A,3 G, A,2 A,,4 ::[M:3/4] D,3 C, D,E, |[M:6/4]"^5 6" F,6 G,6 | %16
"^6" E,6 F,6 |"^6" A,,6 _B,,6 |"^-natural" B,,6 C,6 |"^#""^4" D,6 E,6 |"^6""^7 6" A,,2 A,4 G,6 | %21
 F,F,, G,,A,, _B,,A,, G,,G,, A,,B,, C,B,, |"^6" A,,A,, _B,,C, D,C, B,,6 | C,6 F,,6 | %24
"^5 6""^5 6" F,6 G,6 |"^5 6" A,6 _B,6 | G,6 A,2 A,,4 | D,12 :| %28

